img/backgroundDark.svg

<svg xmlns="http://www.w3.org/2000/svg" xmlns:xlink="http://www.w3.org/1999/xlink" style="margin:auto;background:#222b34;display:block;z-index:1;position:relative" width="1920" height="1080" preserveAspectRatio="xMidYMid" viewBox="0 0 1920 1080">
    <g transform="translate(960,540) scale(1,1) translate(-960,-540)"><defs>
        <path id="path-eckyz4l8b6-1" d="M-35 -35L35 -35L35 35L-35 35Z" fill="none" stroke="inherit" stroke-width="4.333333333333334" transform="scale(0.3)"></path>
        <path id="path-eckyz4l8b6-2" d="M0 -37A37 37 0 0 1 0 37A37 37 0 0 1 0 -37" fill="none" stroke="inherit" stroke-width="4.333333333333334" transform="scale(0.3)"></path>
        <path id="path-eckyz4l8b6-3" d="M0 -34.641L40 34.641L-40 34.641Z" fill="none" stroke="inherit" stroke-width="4.333333333333334" transform="scale(0.3)"></path>
    </defs><path id="path0" d="M 121.90669357352289 601.9345645740766
c 0 42.72699977355258 -10.454478667996906 12.272648871126805 -22.72712753912371 12.272648871126805
S 76.45243849527546 644.6615643476292 76.45243849527546 601.9345645740766
s 10.454478667996906 -12.272648871126805 22.72712753912371 -12.272648871126805
S 121.90669357352289 559.207564800524 121.90669357352289 601.9345645740766
z" fill="none" stroke="none"></path>
        <use xlink:href="#path-eckyz4l8b6-3" x="0" y="0" stroke="#84206b">
            <animateMotion begin="-6.036844996014809s" dur="12.5s" keyPoints="0;1" keyTimes="0;1" repeatCount="indefinite" calcMode="linear">
                <mpath xlink:href="#path0"></mpath>
            </animateMotion>
        </use><path id="path1" d="M 169.46458837786818 378.59062129669695
c 0 26.68613536697042 -6.52958631319489 7.66516654157661 -14.1947528547715 7.66516654157661
S 141.07508266832517 405.27675666366736 141.07508266832517 378.59062129669695
s 6.52958631319489 -7.66516654157661 14.1947528547715 -7.66516654157661
S 169.46458837786818 351.90448592972655 169.46458837786818 378.59062129669695
z" fill="none" stroke="none"></path>
        <use xlink:href="#path-eckyz4l8b6-1" x="0" y="0" stroke="#e55c30">
            <animateMotion begin="-6.4373479941290555s" dur="12.5s" keyPoints="1;0" keyTimes="0;1" repeatCount="indefinite" calcMode="linear">
                <mpath xlink:href="#path1"></mpath>
            </animateMotion>
        </use><path id="path2" d="M 270.51943870136853 637.5264247961314
c 0 49.52256583545508 -12.117223555483688 14.224566782524333 -26.34179033800802 14.224566782524333
S 217.83585802535248 687.0489906315865 217.83585802535248 637.5264247961314
s 12.117223555483688 -14.224566782524333 26.34179033800802 -14.224566782524333
S 270.51943870136853 588.0038589606763 270.51943870136853 637.5264247961314
z" fill="none" stroke="none"></path>
        <use xlink:href="#path-eckyz4l8b6-2" x="0" y="0" stroke="#e55c30">
            <animateMotion begin="-8.252052030222623s" dur="12.5s" keyPoints="1;0" keyTimes="0;1" repeatCount="indefinite" calcMode="linear">
                <mpath xlink:href="#path2"></mpath>
            </animateMotion>
        </use><path id="path3" d="M 448.802255084001 268.56314930426754
c 0 59.45048097900124 -14.546394282096047 17.076201983330144 -31.622596265426193 17.076201983330144
S 385.5570625531486 328.01363028326875 385.5570625531486 268.56314930426754
s 14.546394282096047 -17.076201983330144 31.622596265426193 -17.076201983330144
S 448.802255084001 209.1126683252663 448.802255084001 268.56314930426754
z" fill="none" stroke="none"></path>
        <use xlink:href="#path-eckyz4l8b6-1" x="0" y="0" stroke="#140b34">
            <animateMotion begin="-8.601435017441094s" dur="12.5s" keyPoints="0;1" keyTimes="0;1" repeatCount="indefinite" calcMode="linear">
                <mpath xlink:href="#path3"></mpath>
            </animateMotion>
        </use><path id="path4" d="M 490.4504402126983 419.9927920617509
c 0 36.84022404680448 -9.014097373154286 10.581766481528946 -19.595863854683234 10.581766481528946
S 451.2587125033319 456.8330161085554 451.2587125033319 419.9927920617509
s 9.014097373154286 -10.581766481528946 19.595863854683234 -10.581766481528946
S 490.4504402126983 383.1525680149464 490.4504402126983 419.9927920617509
z" fill="none" stroke="none"></path>
        <use xlink:href="#path-eckyz4l8b6-2" x="0" y="0" stroke="#140b34">
            <animateMotion begin="-8.880231781015265s" dur="12.5s" keyPoints="0;1" keyTimes="0;1" repeatCount="indefinite" calcMode="linear">
                <mpath xlink:href="#path4"></mpath>
            </animateMotion>
        </use><path id="path5" d="M 610.2786691348041 273.8079550653143
c 0 32.790721689028345 -8.023261689868637 9.418611548976228 -17.441873238844863 9.418611548976228
S 575.3949226571143 306.5986767543426 575.3949226571143 273.8079550653143
s 8.023261689868637 -9.418611548976228 17.441873238844863 -9.418611548976228
S 610.2786691348041 241.01723337628593 610.2786691348041 273.8079550653143
z" fill="none" stroke="none"></path>
        <use xlink:href="#path-eckyz4l8b6-2" x="0" y="0" stroke="#84206b">
            <animateMotion begin="-8.078785941975914s" dur="12.5s" keyPoints="1;0" keyTimes="0;1" repeatCount="indefinite" calcMode="linear">
                <mpath xlink:href="#path5"></mpath>
            </animateMotion>
        </use><path id="path6" d="M 710.1987080364346 639.140319862942
c 0 52.31066922052108 -12.79941906459558 15.025404988873076 -27.824824053468657 15.025404988873076
S 654.5490599294973 691.450989083463 654.5490599294973 639.140319862942
s 12.79941906459558 -15.025404988873076 27.824824053468657 -15.025404988873076
S 710.1987080364346 586.8296506424209 710.1987080364346 639.140319862942
z" fill="none" stroke="none"></path>
        <use xlink:href="#path-eckyz4l8b6-3" x="0" y="0" stroke="#e55c30">
            <animateMotion begin="-7.43657024303542s" dur="12.5s" keyPoints="1;0" keyTimes="0;1" repeatCount="indefinite" calcMode="linear">
                <mpath xlink:href="#path6"></mpath>
            </animateMotion>
        </use><path id="path7" d="M 866.852627961109 792.2945781107373
c 0 34.63385395263956 -8.474240860752232 9.94802188001349 -18.422262740765724 9.94802188001349
S 830.0081024795775 826.9284320633769 830.0081024795775 792.2945781107373
s 8.474240860752232 -9.94802188001349 18.422262740765724 -9.94802188001349
S 866.852627961109 757.6607241580978 866.852627961109 792.2945781107373
z" fill="none" stroke="none"></path>
        <use xlink:href="#path-eckyz4l8b6-1" x="0" y="0" stroke="#e55c30">
            <animateMotion begin="-11.852895941755357s" dur="12.5s" keyPoints="1;0" keyTimes="0;1" repeatCount="indefinite" calcMode="linear">
                <mpath xlink:href="#path7"></mpath>
            </animateMotion>
        </use><path id="path8" d="M 947.3024466208863 840.8788764506847
c 0 45.759381031936215 -11.196444295048222 13.14365199853487 -24.34009629358309 13.14365199853487
S 898.6222540337201 886.6382574826209 898.6222540337201 840.8788764506847
s 11.196444295048222 -13.14365199853487 24.34009629358309 -13.14365199853487
S 947.3024466208863 795.1194954187486 947.3024466208863 840.8788764506847
z" fill="none" stroke="none"></path>
        <use xlink:href="#path-eckyz4l8b6-2" x="0" y="0" stroke="#140b34">
            <animateMotion begin="-0.5181639108283814s" dur="12.5s" keyPoints="0;1" keyTimes="0;1" repeatCount="indefinite" calcMode="linear">
                <mpath xlink:href="#path8"></mpath>
            </animateMotion>
        </use><path id="path9" d="M 1010.5603914616507 990.397427292297
c 0 30.210777192987237 -7.391998674879855 8.677563661815483 -16.069562336695338 8.677563661815483
S 978.4212667882601 1020.6082044852843 978.4212667882601 990.397427292297
s 7.391998674879855 -8.677563661815483 16.069562336695338 -8.677563661815483
S 1010.5603914616507 960.1866500993098 1010.5603914616507 990.397427292297
z" fill="none" stroke="none"></path>
        <use xlink:href="#path-eckyz4l8b6-1" x="0" y="0" stroke="#140b34">
            <animateMotion begin="-0.452495004586595s" dur="12.5s" keyPoints="0;1" keyTimes="0;1" repeatCount="indefinite" calcMode="linear">
                <mpath xlink:href="#path9"></mpath>
            </animateMotion>
        </use><path id="path10" d="M 1161.3676775729448 246.27874611750707
c 0 52.231785947286646 -12.78011783816588 15.002747027412124 -27.782864865578002 15.002747027412124
S 1105.801947841789 298.5105320647937 1105.801947841789 246.27874611750707
s 12.78011783816588 -15.002747027412124 27.782864865578002 -15.002747027412124
S 1161.3676775729448 194.04696017022042 1161.3676775729448 246.27874611750707
z" fill="none" stroke="none"></path>
        <use xlink:href="#path-eckyz4l8b6-2" x="0" y="0" stroke="#140b34">
            <animateMotion begin="-10.681124505661103s" dur="12.5s" keyPoints="1;0" keyTimes="0;1" repeatCount="indefinite" calcMode="linear">
                <mpath xlink:href="#path10"></mpath>
            </animateMotion>
        </use><path id="path11" d="M 1293.305267741849 49.08260109184191
c 0 45.72192426149198 -11.187279340577824 13.132893138939187 -24.320172479517012 13.132893138939187
S 1244.6649227828152 94.80452535333389 1244.6649227828152 49.08260109184191
s 11.187279340577824 -13.132893138939187 24.320172479517012 -13.132893138939187
S 1293.305267741849 3.360676830349931 1293.305267741849 49.08260109184191
z" fill="none" stroke="none"></path>
        <use xlink:href="#path-eckyz4l8b6-3" x="0" y="0" stroke="#140b34">
            <animateMotion begin="-2.6927752434240784s" dur="12.5s" keyPoints="0;1" keyTimes="0;1" repeatCount="indefinite" calcMode="linear">
                <mpath xlink:href="#path11"></mpath>
            </animateMotion>
        </use><path id="path12" d="M 1323.4440023161983 559.751949034323
c 0 57.05099352673672 -13.959285650158982 16.386987502360547 -30.34627315251953 16.386987502360547
S 1262.7514560111595 616.8029425610598 1262.7514560111595 559.751949034323
s 13.959285650158982 -16.386987502360547 30.34627315251953 -16.386987502360547
S 1323.4440023161983 502.70095550758634 1323.4440023161983 559.751949034323
z" fill="none" stroke="none"></path>
        <use xlink:href="#path-eckyz4l8b6-2" x="0" y="0" stroke="#84206b">
            <animateMotion begin="-9.771453656126235s" dur="12.5s" keyPoints="0;1" keyTimes="0;1" repeatCount="indefinite" calcMode="linear">
                <mpath xlink:href="#path12"></mpath>
            </animateMotion>
        </use><path id="path13" d="M 1492.556156189724 789.4364381392444
c 0 63.17170766614032 -15.456907194906671 18.145064967933923 -33.601972162840596 18.145064967933923
S 1425.3522118640428 852.6081458053848 1425.3522118640428 789.4364381392444
s 15.456907194906671 -18.145064967933923 33.601972162840596 -18.145064967933923
S 1492.556156189724 726.264730473104 1492.556156189724 789.4364381392444
z" fill="none" stroke="none"></path>
        <use xlink:href="#path-eckyz4l8b6-1" x="0" y="0" stroke="#e55c30">
            <animateMotion begin="-8.367563427900555s" dur="12.5s" keyPoints="1;0" keyTimes="0;1" repeatCount="indefinite" calcMode="linear">
                <mpath xlink:href="#path13"></mpath>
            </animateMotion>
        </use><path id="path14" d="M 1559.905329049596 133.09177411105335
c 0 64.50379052825417 -15.782842363296233 18.52768451343471 -34.31052687673094 18.52768451343471
S 1491.284275296134 197.59556463930753 1491.284275296134 133.09177411105335
s 15.782842363296233 -18.52768451343471 34.31052687673094 -18.52768451343471
S 1559.905329049596 68.58798358279918 1559.905329049596 133.09177411105335
z" fill="none" stroke="none"></path>
        <use xlink:href="#path-eckyz4l8b6-3" x="0" y="0" stroke="#84206b">
            <animateMotion begin="-3.2252395972137555s" dur="12.5s" keyPoints="0;1" keyTimes="0;1" repeatCount="indefinite" calcMode="linear">
                <mpath xlink:href="#path14"></mpath>
            </animateMotion>
        </use><path id="path15" d="M 1607.6689689378202 351.49754650718745
c 0 26.366142016130528 -6.451290067776618 7.573253557824726 -14.024543625601344 7.573253557824726
S 1579.6198816866174 377.863688523318 1579.6198816866174 351.49754650718745
s 6.451290067776618 -7.573253557824726 14.024543625601344 -7.573253557824726
S 1607.6689689378202 325.1314044910569 1607.6689689378202 351.49754650718745
z" fill="none" stroke="none"></path>
        <use xlink:href="#path-eckyz4l8b6-1" x="0" y="0" stroke="#e55c30">
            <animateMotion begin="-0.5973993944672323s" dur="12.5s" keyPoints="1;0" keyTimes="0;1" repeatCount="indefinite" calcMode="linear">
                <mpath xlink:href="#path15"></mpath>
            </animateMotion>
        </use><path id="path16" d="M 1767.6799031579353 278.331848441347
c 0 47.130943548182685 -11.532039378810657 13.537611444690771 -25.069650823501426 13.537611444690771
S 1717.5406015109324 325.4627919895297 1717.5406015109324 278.331848441347
s 11.532039378810657 -13.537611444690771 25.069650823501426 -13.537611444690771
S 1767.6799031579353 231.2009048931643 1767.6799031579353 278.331848441347
z" fill="none" stroke="none"></path>
        <use xlink:href="#path-eckyz4l8b6-1" x="0" y="0" stroke="#e55c30">
            <animateMotion begin="-11.056281089254025s" dur="12.5s" keyPoints="1;0" keyTimes="0;1" repeatCount="indefinite" calcMode="linear">
                <mpath xlink:href="#path16"></mpath>
            </animateMotion>
        </use><path id="path17" d="M 1840.411846180382 27.870584318841523
c 0 62.67543759716742 -15.335479412072877 18.002519309824685 -33.33799872189756 18.002519309824685
S 1773.735848736587 90.54602191600894 1773.735848736587 27.870584318841523
s 15.335479412072877 -18.002519309824685 33.33799872189756 -18.002519309824685
S 1840.411846180382 -34.80485327832589 1840.411846180382 27.870584318841523
z" fill="none" stroke="none"></path>
        <use xlink:href="#path-eckyz4l8b6-3" x="0" y="0" stroke="#140b34">
            <animateMotion begin="-4.239663712455877s" dur="12.5s" keyPoints="1;0" keyTimes="0;1" repeatCount="indefinite" calcMode="linear">
                <mpath xlink:href="#path17"></mpath>
            </animateMotion>
        </use></g>
</svg>

<svg xmlns="http://www.w3.org/2000/svg" xmlns:xlink="http://www.w3.org/1999/xlink" width="1920" height="1080" preserveAspectRatio="xMidYMid" style="margin:auto;background:#222b34;display:block;z-index:1;position:relative"><g><defs><path id="c" fill="none" stroke="inherit" stroke-width="4.333" d="M-35-35h70v70h-70Z" transform="scale(.3)"/><path id="e" fill="none" stroke="inherit" stroke-width="4.333" d="M0-37a37 37 0 0 1 0 74 37 37 0 0 1 0-74" transform="scale(.3)"/><path id="a" fill="none" stroke="inherit" stroke-width="4.333" d="m0-34.641 40 69.282h-80Z" transform="scale(.3)"/></defs><path id="b" fill="none" stroke="none" d="M121.907 601.935c0 42.727-10.455 12.272-22.727 12.272s-22.728 30.455-22.728-12.272 10.455-12.273 22.728-12.273 22.727-30.454 22.727 12.273"/><use xlink:href="#a" stroke="#84206b"><animateMotion begin="-6.036844996014809s" calcMode="linear" dur="12.5s" keyPoints="0;1" keyTimes="0;1" repeatCount="indefinite"><mpath xlink:href="#b"/></animateMotion></use><path id="d" fill="none" stroke="none" d="M169.465 378.59c0 26.687-6.53 7.666-14.195 7.666s-14.195 19.02-14.195-7.665 6.53-7.666 14.195-7.666 14.195-19.02 14.195 7.666"/><use xlink:href="#c" stroke="#e55c30"><animateMotion begin="-6.4373479941290555s" calcMode="linear" dur="12.5s" keyPoints="1;0" keyTimes="0;1" repeatCount="indefinite"><mpath xlink:href="#d"/></animateMotion></use><path id="f" fill="none" stroke="none" d="M270.52 637.526c0 49.523-12.118 14.225-26.342 14.225s-26.342 35.298-26.342-14.225 12.117-14.224 26.342-14.224 26.341-35.298 26.341 14.224"/><use xlink:href="#e" stroke="#e55c30"><animateMotion begin="-8.252052030222623s" calcMode="linear" dur="12.5s" keyPoints="1;0" keyTimes="0;1" repeatCount="indefinite"><mpath xlink:href="#f"/></animateMotion></use><path id="g" fill="none" stroke="none" d="M448.802 268.563c0 59.45-14.546 17.076-31.622 17.076s-31.623 42.375-31.623-17.076 14.546-17.076 31.623-17.076 31.622-42.374 31.622 17.076"/><use xlink:href="#c" stroke="#140b34"><animateMotion begin="-8.601435017441094s" calcMode="linear" dur="12.5s" keyPoints="0;1" keyTimes="0;1" repeatCount="indefinite"><mpath xlink:href="#g"/></animateMotion></use><path id="h" fill="none" stroke="none" d="M490.45 419.993c0 36.84-9.014 10.582-19.595 10.582s-19.596 26.258-19.596-10.582 9.014-10.582 19.596-10.582 19.595-26.258 19.595 10.582"/><use xlink:href="#e" stroke="#140b34"><animateMotion begin="-8.880231781015265s" calcMode="linear" dur="12.5s" keyPoints="0;1" keyTimes="0;1" repeatCount="indefinite"><mpath xlink:href="#h"/></animateMotion></use><path id="i" fill="none" stroke="none" d="M610.279 273.808c0 32.79-8.024 9.419-17.442 9.419s-17.442 23.372-17.442-9.419 8.023-9.419 17.442-9.419 17.442-23.372 17.442 9.419"/><use xlink:href="#e" stroke="#84206b"><animateMotion begin="-8.078785941975914s" calcMode="linear" dur="12.5s" keyPoints="1;0" keyTimes="0;1" repeatCount="indefinite"><mpath xlink:href="#i"/></animateMotion></use><path id="j" fill="none" stroke="none" d="M710.199 639.14c0 52.311-12.8 15.026-27.825 15.026s-27.825 37.285-27.825-15.026 12.8-15.025 27.825-15.025 27.825-37.285 27.825 15.025"/><use xlink:href="#a" stroke="#e55c30"><animateMotion begin="-7.43657024303542s" calcMode="linear" dur="12.5s" keyPoints="1;0" keyTimes="0;1" repeatCount="indefinite"><mpath xlink:href="#j"/></animateMotion></use><path id="k" fill="none" stroke="none" d="M866.853 792.295c0 34.633-8.475 9.948-18.423 9.948s-18.422 24.685-18.422-9.948 8.474-9.948 18.422-9.948 18.423-24.686 18.423 9.948"/><use xlink:href="#c" stroke="#e55c30"><animateMotion begin="-11.852895941755357s" calcMode="linear" dur="12.5s" keyPoints="1;0" keyTimes="0;1" repeatCount="indefinite"><mpath xlink:href="#k"/></animateMotion></use><path id="l" fill="none" stroke="none" d="M947.302 840.879c0 45.76-11.196 13.144-24.34 13.144s-24.34 32.615-24.34-13.144 11.197-13.144 24.34-13.144 24.34-32.616 24.34 13.144"/><use xlink:href="#e" stroke="#140b34"><animateMotion begin="-0.5181639108283814s" calcMode="linear" dur="12.5s" keyPoints="0;1" keyTimes="0;1" repeatCount="indefinite"><mpath xlink:href="#l"/></animateMotion></use><path id="m" fill="none" stroke="none" d="M1010.56 990.397c0 30.211-7.392 8.678-16.07 8.678s-16.069 21.533-16.069-8.678 7.392-8.677 16.07-8.677 16.07-21.533 16.07 8.677"/><use xlink:href="#c" stroke="#140b34"><animateMotion begin="-0.452495004586595s" calcMode="linear" dur="12.5s" keyPoints="0;1" keyTimes="0;1" repeatCount="indefinite"><mpath xlink:href="#m"/></animateMotion></use><path id="n" fill="none" stroke="none" d="M1161.368 246.279c0 52.232-12.78 15.002-27.783 15.002s-27.783 37.23-27.783-15.002 12.78-15.003 27.783-15.003 27.783-37.229 27.783 15.003"/><use xlink:href="#e" stroke="#140b34"><animateMotion begin="-10.681124505661103s" calcMode="linear" dur="12.5s" keyPoints="1;0" keyTimes="0;1" repeatCount="indefinite"><mpath xlink:href="#n"/></animateMotion></use><path id="o" fill="none" stroke="none" d="M1293.305 49.083c0 45.722-11.187 13.132-24.32 13.132s-24.32 32.59-24.32-13.132 11.187-13.133 24.32-13.133 24.32-32.59 24.32 13.133"/><use xlink:href="#a" stroke="#140b34"><animateMotion begin="-2.6927752434240784s" calcMode="linear" dur="12.5s" keyPoints="0;1" keyTimes="0;1" repeatCount="indefinite"><mpath xlink:href="#o"/></animateMotion></use><path id="p" fill="none" stroke="none" d="M1323.444 559.752c0 57.05-13.96 16.387-30.346 16.387s-30.347 40.664-30.347-16.387 13.96-16.387 30.347-16.387 30.346-40.664 30.346 16.387"/><use xlink:href="#e" stroke="#84206b"><animateMotion begin="-9.771453656126235s" calcMode="linear" dur="12.5s" keyPoints="0;1" keyTimes="0;1" repeatCount="indefinite"><mpath xlink:href="#p"/></animateMotion></use><path id="q" fill="none" stroke="none" d="M1492.556 789.436c0 63.172-15.457 18.146-33.602 18.146s-33.602 45.026-33.602-18.146 15.457-18.145 33.602-18.145 33.602-45.026 33.602 18.145"/><use xlink:href="#c" stroke="#e55c30"><animateMotion begin="-8.367563427900555s" calcMode="linear" dur="12.5s" keyPoints="1;0" keyTimes="0;1" repeatCount="indefinite"><mpath xlink:href="#q"/></animateMotion></use><path id="r" fill="none" stroke="none" d="M1559.905 133.092c0 64.504-15.783 18.527-34.31 18.527s-34.31 45.977-34.31-18.527 15.782-18.528 34.31-18.528 34.31-45.976 34.31 18.528"/><use xlink:href="#a" stroke="#84206b"><animateMotion begin="-3.2252395972137555s" calcMode="linear" dur="12.5s" keyPoints="0;1" keyTimes="0;1" repeatCount="indefinite"><mpath xlink:href="#r"/></animateMotion></use><path id="s" fill="none" stroke="none" d="M1607.669 351.498c0 26.366-6.451 7.573-14.025 7.573s-14.024 18.793-14.024-7.573 6.451-7.574 14.024-7.574 14.025-18.793 14.025 7.574"/><use xlink:href="#c" stroke="#e55c30"><animateMotion begin="-0.5973993944672323s" calcMode="linear" dur="12.5s" keyPoints="1;0" keyTimes="0;1" repeatCount="indefinite"><mpath xlink:href="#s"/></animateMotion></use><path id="t" fill="none" stroke="none" d="M1767.68 278.332c0 47.13-11.532 13.537-25.07 13.537s-25.07 33.594-25.07-13.537 11.533-13.538 25.07-13.538 25.07-33.593 25.07 13.538"/><use xlink:href="#c" stroke="#e55c30"><animateMotion begin="-11.056281089254025s" calcMode="linear" dur="12.5s" keyPoints="1;0" keyTimes="0;1" repeatCount="indefinite"><mpath xlink:href="#t"/></animateMotion></use><path id="u" fill="none" stroke="none" d="M1840.412 27.87c0 62.676-15.336 18.003-33.338 18.003s-33.338 44.673-33.338-18.002 15.335-18.003 33.338-18.003 33.338-44.673 33.338 18.003"/><use xlink:href="#a" stroke="#140b34"><animateMotion begin="-4.239663712455877s" calcMode="linear" dur="12.5s" keyPoints="1;0" keyTimes="0;1" repeatCount="indefinite"><mpath xlink:href="#u"/></animateMotion></use></g></svg>
